X:1
T:Title
%%score { 1 | 2 }
L:1/8
M:3/4
K:Ab
V:1 treble nm="Grand Piano"
V:2 bass 
V:1
 z2 z2[Q:1/4=100] [CE]2 | [CE][_C=D] [=CE]2 [CA]2 | [Ec][=D_c] [E=c]2 [=EB]2 | %3
 [FA][=EG] [FA]2 [DF]2 |[M:2/4] [CE]4 |[M:1/4] [CE]2 |[M:3/4] F=E F2 [FA]2 | %7
 [Fd][=Ec] [Fd]2 [_Ec]2 | B=A B2 c2 |[M:2/4] [CA]4 |[M:1/4] [Ec]2 |[M:3/4] [_Ge][Fd] [Fd]2 [Ge]2 | %12
 dc c2 c2 | c[EB] [EA]2 B2 |[M:2/4] c4 |[M:1/4] [Ec]2 |[M:3/4] [_Ge][Fd] [Fd]2 [Ge]2 | %17
 [Fd][Ec] [Ec]2 [Ec]2 | B=A B2 c2 |[M:2/4] [CA]4 |] %20
V:2
 z2 z2 [A,,A,]2 | [A,,A,][A,,A,] [A,,A,]2 [A,,E,]2 | [A,,A,][A,,A,] [A,,A,]2 [C,G,]2 | %3
 [D,F,][D,D] [D,D]2 [D,A,]2 |[M:2/4] [A,,A,]4 |[M:1/4] [A,,A,]2 | %6
[M:3/4] [D,A,D][D,A,C] [D,A,D]2 [D,D]2 | [D,A,][D,A,] [D,A,]2 [A,,A,]2 | %8
 [E,G,D][E,G,C] [E,G,D]2 [E,G,E]2 |[M:2/4] [A,,A,]4 |[M:1/4] [A,,A,]2 | %11
[M:3/4] [D,A,][D,A,] [D,A,]2 [D,A,]2 | [A,F][A,E][K:bass] [A,E]2 [A,E]2 | %13
 [E,A,E][D,G,] [C,A,]2 [E,G,E]2 |[M:2/4] [A,E]4 |[M:1/4] [A,,A,]2 | %16
[M:3/4] [D,A,][D,A,] [D,A,]2 [D,A,]2 | [A,,A,][A,,A,] [A,,A,]2 [C,A,]2 | %18
 [E,G,D][E,G,C] [E,G,D]2 [E,G,E]2 |[M:2/4] [A,,A,]4 |] %20

